icons-common/file.svg

<svg height="1em" width="auto" viewBox="0 0 105 105" fill="currentColor" xmlns="http://www.w3.org/2000/svg">
    <path d="M41.8495 64.4493C49.6333 63.6888 57.4171 63.6888 65.1562 64.4493C69.7191 64.9413 69.6743 71.7857 65.1562 72.2778C57.3724 73.0383 49.5886 73.0383 41.8495 72.2778C39.7023 72.0094 38.1366 70.0411 38.405 67.8938C38.6286 66.0597 40.1049 64.6729 41.8495 64.4493Z"
          />
    <path d="M62.9194 27.6354C63.7247 37.3875 64.9325 38.2822 74.5504 39.1321C78.1292 39.49 78.487 44.9476 75.0425 45.7976C61.6221 49.9579 52.049 40.4294 56.254 26.9644C57.2382 23.3409 62.6958 23.9672 62.9194 27.6354Z"
          />
    <path d="M61.9795 87.7568H44.9805C33.3942 87.7568 24 78.3179 24 66.7764V39.9805C24 28.439 33.439 19 44.9805 19H61.9795C73.5658 19 82.96 28.439 82.96 39.9805V66.7317C82.96 78.3179 73.521 87.7121 61.9795 87.7121V87.7568ZM44.9805 26.8285C37.7335 26.8285 31.8285 32.7335 31.8285 39.9805V66.7317C31.8285 73.9786 37.7335 79.8836 44.9805 79.8836H61.9795C69.2265 79.8836 75.1315 73.9786 75.1315 66.7317V39.9805C75.1315 32.7335 69.2265 26.8285 61.9795 26.8285H44.9805Z"
          />
</svg>

<svg xmlns="http://www.w3.org/2000/svg" width="auto" height="1em" fill="currentColor" viewBox="0 0 105 105">
    <path d="M41.85 64.45a119.3 119.3 0 0 1 23.306 0c4.563.491 4.518 7.336 0 7.828-7.784.76-15.567.76-23.307 0-2.147-.269-3.712-2.237-3.444-4.384.224-1.834 1.7-3.221 3.444-3.445M62.92 27.635c.805 9.753 2.013 10.647 11.63 11.497 3.58.358 3.937 5.816.493 6.666-13.42 4.16-22.994-5.369-18.789-18.834.984-3.623 6.442-2.997 6.665.671"/>
    <path d="M61.98 87.757h-17c-11.586 0-20.98-9.44-20.98-20.98V39.98C24 28.438 33.439 19 44.98 19h17c11.586 0 20.98 9.439 20.98 20.98v26.752c0 11.586-9.439 20.98-20.98 20.98zm-17-60.929c-7.246 0-13.151 5.906-13.151 13.153v26.75c0 7.248 5.904 13.153 13.151 13.153h17c7.247 0 13.152-5.905 13.152-13.152V39.98c0-7.248-5.906-13.153-13.153-13.153z"/>
</svg>
